X:24
T:Valse des roses
R:Valse
C:trad.
A:Massif Central
O:France
Z:S. Piron
M:3/4
L:1/4
Q:1/4=160
K:G
B2B|c2c|A2d|B3|BAG|A2A|DEF|G3|BAG|A2A|DEF|G3||
